X: 5286
T: Brosna, The
R: slide
M: 12/8
K: Amajor
|:A2 F|E2 A A2 B cBc e2 c|B2 E GFE B2 E GFE|
E2 A A2 B cBc e2 c|B2 E GFE A3:|
|:A2 e|a2 g fga g2 f e2 c|d2 c B2 c d2 e f2 g|
a2 g fga g2 f e2 c|d2 B G2 B A3:|

